X: 29542
T: Noble?
R: reel
M: 4/4
K: Bminor
|:zDEF A3D|EFAF ABE2|zDEF A2BF|A3d c A2 z|
zDEF A3D|EFAF Adc2|zDEF A2 AF|deed f ~B3:|
|:Bdef- fBde|f2Bd fe2A|Bdef- fBde|f ~B3 BAB/c/d|
Bdef- fBde|f2fB defa|b ~f3 fefa|f ~e3 edcA:|

